build/img/metro.svg

<svg width="16" height="14" viewBox="0 0 16 14" fill="none" xmlns="http://www.w3.org/2000/svg">
<path d="M10.5937 0.798218L8 8.97521L5.40644 0.798218C2.32117 1.85868 0 4.7354 0 8.03337C0 10.0198 0.810392 11.8516 2.12145 13.2017H5.88176H5.40644C0.914141 11.4415 2.6331 4.27783 4.26165 3.38752C4.45496 3.44565 7.28761 13.1615 7.28761 13.1615C7.32631 13.1615 7.45202 13.1615 7.60562 13.1615C7.63806 13.1615 7.76023 13.1615 7.91247 13.1615C7.96756 13.1615 8.02704 13.1615 8.08736 13.1615C8.19077 13.1615 8.29807 13.1615 8.39404 13.1615C8.54781 13.1615 8.67336 13.1615 8.71222 13.1615C8.71222 13.1615 11.545 3.44565 11.7382 3.38752C13.3669 4.27783 14.6104 11.4415 10.1181 13.2017H13.8784C15.1896 11.8516 16 10.0198 16 8.03337C16 4.7354 13.6788 1.85868 10.5937 0.798218Z" fill="#e94646"/>
</svg>

<svg width="16" height="14" fill="none" xmlns="http://www.w3.org/2000/svg"><path d="M10.594.798L8 8.975 5.406.798C2.321 1.858 0 4.735 0 8.033c0 1.987.81 3.819 2.121 5.169h3.76-.475c-4.492-1.76-2.773-8.924-1.144-9.814.193.058 3.026 9.774 3.026 9.774h1.424s2.833-9.716 3.026-9.774c1.629.89 2.872 8.053-1.62 9.814h3.76C15.19 11.852 16 10.02 16 8.033c0-3.298-2.321-6.174-5.406-7.235z" fill="#e94646"/></svg>
